icon/pk/copyright.svg

<svg width="48" height="48" fill="none" xmlns="http://www.w3.org/2000/svg"><circle cx="24" cy="24" r="20" fill="#2F88FF" stroke="#000" stroke-width="4" stroke-linecap="round" stroke-linejoin="round"/><path d="M24 17h-4v7h4c3 0 4-2 4-3.5S27 17 24 17Z" fill="#2F88FF"/><path d="M20 31v-7m0 0v-7h4c3 0 4 2 4 3.5S27 24 24 24h-1m-3 0h3m5 7-5-7" stroke="#fff" stroke-width="4" stroke-linecap="round" stroke-linejoin="round"/></svg>

<svg viewBox="0 0 48 48" fill="none" xmlns="http://www.w3.org/2000/svg" height="1em" width="1em">
  <circle cx="24" cy="24" r="20" fill="#2F88FF" stroke="black" stroke-width="4" stroke-linecap="round" stroke-linejoin="round"/>
  <path d="M24 17H20V24H23H24C27 24 28 22 28 20.5C28 19 27 17 24 17Z" fill="#2F88FF"/>
  <path d="M20 31V24M20 24L20 17H24C27 17 28 19 28 20.5C28 22 27 24 24 24H23M20 24H23M28 31L23 24" stroke="white" stroke-width="4" stroke-linecap="round" stroke-linejoin="round"/>
</svg>
